**kern	**silbe
*ICvox	*
*D:	*
*M4/4	*
*clefG2	*
r;	.
=1	=1
1r	.
=2	=2
1r	.
=3	=3
1r	.
=4	=4
1r	.
=5	=5
1r	.
=6	=6
1r	.
=7	=7
1r	.
=8	=8
1r	.
=9	=9
8d	Fri-
16B	-day
16[d	night,
16d]	_
16d	it
16B	was
16[d	late
16d]	_
16d	I
8B	was
16d	wal-
16d	-king
16B	you
16[d	home
=10	=10
8d]	_
16B	We
16[d	got
16d]	_
8B	down
16[d	to
16d]	_
16B	the
8d	gate
16B	And
8f#	I
16g	was
=11	=11
8f#	dream-
16d	-ing
16[d	of
16d]	_
16B-	the
8[B-	night
2B-]	_
=12	=12
1r	.
=13	=13
16B	Would
8F#	it
16[F#	turn
16F#]	_
8D#	out
16[D#	right?
2D#]	_
=14	=14
2r	.
4r	.
8f#	How
8g	to
=15	=15
4f#	tell
8d	you,
8[d	girl
2d]	_
=16	=16
2r	.
8r	.
8f#	I
8f#	wan-
16g	-na
16[a	build
=17	=17
8a]	_
8g	my
8f#	world
16g	a-
16[f#	-round
8f#]	_
8[d	you
4d]	_
=18	=18
1r	.
=19	=19
8d#	Tell
8B	you
16B	that
8A	it's
16[B	true
16B]	_
16A	_
8[F#	_
4F#]	_
=20	=20
1r	.
=21	=21
16r	.
16B	I
16B	wan-
16B	-na
16d	make
8e	you
16[f#	un-
16f#]	_
8B	-der-
16[d	-stand
8d]	_
8d	I'm
=22	=22
16f	tal-
16e	-king
16d	a-
16[d	-bout
8d]	_
16B	a
16[d	life
16d]	_
8.[c	time
8c]	_
8[d	plan
=23	=23
1d]	_
=24	=24
1r	.
=25	=25
4r	.
8f#	That's
16e	the
16[d	way
16d]	_
16d	it
16B	be-
16[d	-gan
16d]	_
16d	We
8B	were
=26	=26
8d	hand-
16B	-in-
16[d	-hand
8d]	_
8B	Glenn
16d	Mil-
8B	-ler's
16[f#	band
8f#]	_
8g	Was
=27	=27
16f#	bet-
8.d	-ter
8d	than
16B-	be-
16[B-	-fore
2B-]	_
=28	=28
2r	.
4r	.
8r	.
8B	We
=29	=29
8B	yelled
8B	and
4[B	screamed
8B]	_
16F#	for
16[F#	more
4F#]	_
=30	=30
2r	.
8r	.
8[f#	And
16f#]	_
8.g	the
=31	=31
4f#	Por-
8d	-ter
8[e	tune
8e]	_
8[d	_
4d]	_
=32	=32
2r	.
4r	.
16f#	Made
8.g	us
=33	=33
4.a	dance
16g	a-
16[f#	-cross
8f#]	_
8g	the
16f#	room
8.d	_
=34	=34
2r	.
4r	.
8.r	.
16B	It
=35	=35
8d#	en-
16B	-ded
16[B	all
16B]	_
8.d#	too
8B	soon
16A	_
16[F#	_
4F#]	_
=36	=36
1r	.
=37	=37
8.r	.
16B	And
8d	on
16e	the
16[f#	way
16f#]	_
8e	back
16[e	home
8e]	_
8d	I
=38	=38
16f	pro-
16e	-mised
8d	you'd
8d	ne-
16B	-ver
16[d	be
8.d]	_
16[c	a-
8c]	_
8[d	-lone
=39	=39
1d_	_
=40	=40
4d]	_
4r	.
2r	.
=41	=41
8b	Hur-
16a	-ry,
16[b	don't
16b]	_
16a	be
8b	late
2r	.
=42	=42
8a	I
16g	can't
16[a	har-
16a]	_
16g	-dly
8[a	wait
4.a]	_
8b	I
=43	=43
6f#	said
6f#	to
6e	my-
6f#	-self
6g	when
6a	we're
=44	=44
2.f#	old
16f#	We'll
8.f#	go
=45	=45
8f#	dan-
16d	-cing
16[d	in
16d]	_
16d	the
8[d	dark
4d]	_
4r	.
=46	=46
8f	Wal-
8e	-king
8d	through
16B-	the
16[B-	park
8B-]	_
8d	And
8d	re-
16c	-mi-
16[e	-nis-
=47	=47
16e]	_
8.[d	-cing
2.d]	_
=48	=48
1r	.
=49	=49
8d	Fri-
16B	-day
16[d	night,
16d]	_
16d	it
16B	was
16[d	late
16d]	_
16d	I
8B	was
16d	wal-
16d	-king
16B	you
16[d	home
=50	=50
8d]	_
16B	We
16[d	got
16d]	_
8B	down
16[d	to
16d]	_
16B	the
8d	gate
16B	And
8f#	I
16g	was
=51	=51
8f#	dream-
16d	-ing
16[d	of
16d]	_
16B-	the
8[B-	night
2B-]	_
=52	=52
1r	.
=53	=53
16F#	Would
8G#	it
16[B	turn
16B]	_
8.d	out
8c#	_
4.B	right?
=54	=54
2r	.
6a	Now
6g#	as
6g	the
=55	=55
4f#	years
16d	roll
16B	_
8[e	on
8e]	_
8[d	_
8d]	_
16B	_
16A	_
=56	=56
16B	_
8.[d	_
4d]	_
8r	.
8f#	Each
8f#	time
8g	we
=57	=57
8a	hear
8g	our
8f#	fa-
8g	-v'rite
16f#	song
8.[d	_
4d_	_
=58	=58
4.d]	_
8r	.
4r	.
8.r	.
16B	The
=59	=59
8d#	memo-
8B	-ries
8B	come
16A	a-
16[B	-long
16B]	_
16A	_
8[F#	_
4F#]	_
=60	=60
1r	.
=61	=61
4f#	Ol-
8e	-der
8[e	times
8e]	_
8d	we're
16d	mis-
16e	-sing
8r	.
=62	=62
12f	Spen-
12e	-ding
12d	the
8d	hours
8B	_
8d	re-
16B	-mi-
16[e	-nis-
16e]	_
8.[d	-cing
=63	=63
1d]	_
=64	=64
1r	.
=65	=65
8b	Hur-
16a	-ry,
16[b	don't
16b]	_
16a	be
8b	late
2r	.
=66	=66
8a	I
16g	can't
16[a	har-
16a]	_
16g	-dly
8[a	wait
4.a]	_
8b	I
=67	=67
6f#	said
6f#	to
6a	my-
6f#	-self
6g	when
6[a	we're
=68	=68
8a]	_
8[d#	old
2d#]	_
16f#	We'll
8.f#	go
=69	=69
8f#	dan-
16d	-cing
16[d	in
16d]	_
16d	the
8[d	dark
4d]	_
4r	.
=70	=70
8f	Wal-
8e	-king
8d	through
16B-	the
16[B-	park
8B-]	_
8d	And
8d	re-
16c	-mi-
16[e	-nis-
=71	=71
16e]	_
8.[d	-cing
2.d]	_
=72	=72
1r	.
=73	=73
1r	.
=74	=74
1r	.
=75	=75
1r	.
=76	=76
1r	.
=77	=77
1r	.
=78	=78
1r	.
r;	.
r;	.
*-	*-
!!!ENC: Nathaniel Condit-Schultz